picto/tracks-16-it-large-framed.svg

<svg class="color-immutable" width="30" height="30" viewBox="0 0 30 30" fill="none" xmlns="http://www.w3.org/2000/svg"><path d="M30 0H0V30H30V0Z" fill="#2D327D"/><path d="M25.5 3C26.325 3 27 3.675 27 4.5V25.5C27 26.325 26.325 27 25.5 27H4.5C3.675 27 3 26.325 3 25.5V4.5C3 3.675 3.675 3 4.5 3H25.5ZM25.5 2.625H4.5C3.46613 2.625 2.625 3.46613 2.625 4.5V25.5C2.625 26.5339 3.46613 27.375 4.5 27.375H25.5C26.5339 27.375 27.375 26.5339 27.375 25.5V4.5C27.375 3.46613 26.5339 2.625 25.5 2.625Z" fill="white"/><path d="M11.8254 10.5079V24H9.13065V15.1683H8.17088H7.21118H6.27908H5.95605V13.2119C6.61433 13.1934 7.15118 13.1258 7.56645 13.0088C7.98173 12.8921 8.36153 12.7013 8.70615 12.4367C9.20453 12.0553 9.5397 11.4123 9.71205 10.5079H11.8254Z" fill="white"/><path d="M23.8132 13.8763H21.2477C21.0077 12.8366 20.4171 12.3167 19.4758 12.3167C18.4791 12.3167 17.7715 12.929 17.3532 14.1531C17.1809 14.6515 17.0424 15.4052 16.9379 16.4141C17.344 15.8666 17.7761 15.4728 18.2345 15.2329C18.6928 14.9929 19.2451 14.873 19.8911 14.873C21.1583 14.873 22.1766 15.3222 22.9457 16.2203C23.6778 17.0693 24.044 18.1338 24.044 19.4134C24.044 20.9331 23.5517 22.1543 22.5674 23.0771C21.6815 23.9077 20.617 24.323 19.3743 24.323C17.7808 24.323 16.5412 23.7216 15.6552 22.5188C14.7693 21.3161 14.3263 19.638 14.3263 17.4846C14.3263 15.1837 14.7999 13.3811 15.7475 12.0767C16.6641 10.8155 17.9162 10.1849 19.5035 10.1849C20.9985 10.1849 22.1428 10.6864 22.9364 11.6891C23.3917 12.2675 23.684 12.9966 23.8132 13.8763ZM19.2451 16.9679C18.5991 16.9679 18.0853 17.2387 17.7039 17.78C17.3593 18.2599 17.1871 18.8321 17.1871 19.4966C17.1871 20.1549 17.3624 20.7302 17.7131 21.2223C18.0945 21.77 18.6176 22.0436 19.282 22.0436C19.928 22.0436 20.4478 21.7823 20.8416 21.2592C21.2108 20.7671 21.3953 20.1857 21.3953 19.515C21.3953 18.8568 21.2292 18.2939 20.897 17.8262C20.4909 17.254 19.9402 16.9679 19.2451 16.9679Z" fill="white"/><path d="M6.00073 6H7.01278C7.23013 6 7.39221 6.02715 7.49878 6.08152C7.59928 6.13282 7.67518 6.20715 7.72641 6.30457C7.76946 6.38662 7.79098 6.47377 7.79098 6.56602C7.79098 6.66855 7.76481 6.75982 7.71253 6.83977C7.66026 6.91972 7.58436 6.9828 7.48491 7.02893C7.57101 7.05765 7.63566 7.08788 7.67871 7.11968C7.82428 7.22633 7.89711 7.38165 7.89711 7.58572C7.89711 7.7067 7.87018 7.81537 7.81633 7.91182C7.76248 8.00827 7.68531 8.0856 7.58488 8.1441C7.46593 8.21385 7.30543 8.24873 7.10346 8.24873H6.00073V6ZM6.49138 6.38603V6.9105H6.94048C7.04511 6.9105 7.12198 6.8982 7.17118 6.8736C7.26246 6.8295 7.30806 6.7536 7.30806 6.64597C7.30806 6.5547 7.27933 6.48855 7.22196 6.44753C7.16458 6.4065 7.07068 6.38603 6.94048 6.38603H6.49138ZM6.49138 7.24583V7.86263H6.98818C7.13068 7.86263 7.23066 7.8426 7.28811 7.80263C7.36401 7.74825 7.40196 7.66575 7.40196 7.55498C7.40196 7.42268 7.35066 7.33245 7.24813 7.2843C7.19173 7.25865 7.09686 7.24583 6.96358 7.24583H6.49138Z" fill="white"/><path d="M8.63694 6V6.40147H8.19092V6H8.63694ZM8.63694 6.57217V8.24873H8.19092V6.57217H8.63694Z" fill="white"/><path d="M9.41681 6.57368V6.80903C9.46908 6.73725 9.51783 6.68445 9.56291 6.65063C9.67368 6.56453 9.80696 6.5214 9.96281 6.5214C10.1002 6.5214 10.2166 6.55628 10.3119 6.62603C10.3878 6.68138 10.4409 6.75135 10.4712 6.83595C10.5015 6.92055 10.5165 7.03973 10.5165 7.19355V8.24865H10.072V7.28738C10.072 7.17968 10.0628 7.10078 10.0443 7.05053C10.0269 7.00643 9.99716 6.97155 9.95516 6.9459C9.90693 6.91823 9.85211 6.90435 9.79061 6.90435C9.72296 6.90435 9.66138 6.92077 9.60603 6.95355C9.55068 6.98632 9.50966 7.03095 9.48296 7.08735C9.45326 7.15095 9.43833 7.24988 9.43833 7.3842V8.24858H8.99231V6.57368H9.41681Z" fill="white"/><path d="M12.3791 8.24865H11.9238C11.9043 8.18303 11.8946 8.12715 11.8946 8.08103C11.7552 8.22353 11.5752 8.29485 11.3547 8.29485C11.1825 8.29485 11.0481 8.25488 10.9518 8.17485C10.841 8.0826 10.7856 7.9539 10.7856 7.78883C10.7856 7.5786 10.8805 7.43303 11.0702 7.35203C11.1471 7.31918 11.2886 7.28895 11.4947 7.26128C11.6721 7.23773 11.7825 7.21485 11.8261 7.1928C11.8697 7.17075 11.8915 7.12643 11.8915 7.05975C11.8915 6.91313 11.7941 6.83978 11.5993 6.83978C11.4957 6.83978 11.4201 6.85823 11.3724 6.89513C11.3247 6.93203 11.2932 6.99615 11.2779 7.08735H10.8564C10.8698 6.90075 10.94 6.75998 11.0672 6.66518C11.1943 6.5703 11.3753 6.5229 11.6101 6.5229C11.8695 6.5229 12.0613 6.5757 12.1854 6.6813C12.2428 6.7305 12.281 6.7833 12.3 6.8397C12.3189 6.8961 12.3284 6.98528 12.3284 7.1073C12.3284 7.13295 12.3268 7.24575 12.3237 7.4457C12.3217 7.64768 12.3207 7.76355 12.3207 7.79333C12.3207 7.91535 12.3243 8.00483 12.3315 8.06175C12.3387 8.11868 12.3545 8.181 12.3791 8.24865ZM11.8884 7.43813C11.831 7.47405 11.7264 7.50218 11.5746 7.52273C11.468 7.53915 11.3911 7.56015 11.3439 7.5858C11.2773 7.62173 11.244 7.6827 11.244 7.7688C11.244 7.83855 11.266 7.89285 11.3101 7.93185C11.3542 7.97085 11.4157 7.99028 11.4947 7.99028C11.6259 7.99028 11.7321 7.94415 11.8131 7.85183C11.8418 7.82003 11.8615 7.78695 11.8723 7.7526C11.8831 7.71825 11.8884 7.67288 11.8884 7.61648V7.43813Z" fill="white"/><path d="M13.7157 6.54142V6.97365C13.6439 6.9603 13.586 6.95362 13.5419 6.95362C13.3758 6.95362 13.2538 7.02337 13.1759 7.1628C13.1318 7.24072 13.1097 7.37092 13.1097 7.55347V8.24872H12.6637V6.5691H13.0882V6.87517C13.2092 6.64755 13.385 6.5337 13.6157 6.5337C13.6444 6.5337 13.6778 6.53625 13.7157 6.54142Z" fill="white"/><path d="M14.3724 6V6.40147H13.9264V6H14.3724ZM14.3724 6.57217V8.24873H13.9264V6.57217H14.3724Z" fill="white"/><path d="M15.5338 6.5229C15.7778 6.5229 15.9773 6.6039 16.1321 6.7659C16.2849 6.92588 16.3613 7.13918 16.3613 7.40573C16.3613 7.68158 16.2798 7.90148 16.1168 8.06558C15.964 8.21835 15.7651 8.29478 15.52 8.29478C15.2585 8.29478 15.0503 8.20965 14.8955 8.03948C14.7479 7.87748 14.6741 7.66725 14.6741 7.40888C14.6741 7.15455 14.7458 6.94793 14.8894 6.789C15.0482 6.61163 15.263 6.5229 15.5338 6.5229ZM15.5107 6.87053C15.3928 6.87053 15.299 6.91823 15.2292 7.01355C15.1585 7.10993 15.1231 7.2417 15.1231 7.40888C15.1231 7.5822 15.158 7.71495 15.2277 7.80728C15.2995 7.90058 15.3974 7.94723 15.5215 7.94723C15.6374 7.94723 15.7292 7.9047 15.7968 7.81958C15.8737 7.72523 15.9122 7.58835 15.9122 7.40888C15.9122 7.24073 15.8783 7.11 15.8106 7.0167C15.7399 6.91928 15.6399 6.87053 15.5107 6.87053Z" fill="white"/></svg>

<svg class="color-immutable" width="30" height="30" viewBox="0 0 30 30" fill="none" xmlns="http://www.w3.org/2000/svg"><g clip-path="url(#a)"><path d="M30 0H0v30h30V0Z" fill="#2D327D"/><path d="M25.5 3c.825 0 1.5.675 1.5 1.5v21c0 .825-.675 1.5-1.5 1.5h-21c-.825 0-1.5-.675-1.5-1.5v-21C3 3.675 3.675 3 4.5 3h21Zm0-.375h-21A1.877 1.877 0 0 0 2.625 4.5v21c0 1.034.841 1.875 1.875 1.875h21a1.877 1.877 0 0 0 1.875-1.875v-21A1.877 1.877 0 0 0 25.5 2.625Z" fill="#fff"/><path d="M11.825 10.508V24H9.131v-8.832H5.956v-1.956c.658-.019 1.195-.086 1.61-.203a3.338 3.338 0 0 0 1.14-.572c.499-.382.834-1.025 1.006-1.93h2.113ZM23.813 13.876h-2.565c-.24-1.04-.83-1.56-1.772-1.56-.997 0-1.704.613-2.123 1.837-.172.498-.31 1.252-.415 2.261.406-.547.838-.941 1.297-1.181.458-.24 1.01-.36 1.656-.36 1.267 0 2.286.45 3.055 1.347.732.85 1.098 1.914 1.098 3.193 0 1.52-.492 2.741-1.477 3.664-.886.83-1.95 1.246-3.193 1.246-1.593 0-2.833-.601-3.719-1.804-.886-1.203-1.329-2.881-1.329-5.034 0-2.301.474-4.104 1.421-5.408.917-1.261 2.17-1.892 3.756-1.892 1.495 0 2.64.501 3.433 1.504.456.579.748 1.308.877 2.187Zm-4.568 3.092c-.646 0-1.16.27-1.541.812-.345.48-.517 1.052-.517 1.717 0 .658.175 1.233.526 1.725.381.548.905.822 1.569.822.646 0 1.166-.262 1.56-.785.369-.492.553-1.073.553-1.744 0-.658-.166-1.221-.498-1.689-.406-.572-.957-.858-1.652-.858ZM6 6h1.013c.217 0 .38.027.486.082.1.05.176.125.227.223.043.082.065.169.065.261a.489.489 0 0 1-.306.463c.086.029.15.059.194.09.145.107.218.263.218.467a.61.61 0 0 1-.312.558c-.12.07-.28.105-.482.105H6.001V6Zm.491.386v.524h.45a.542.542 0 0 0 .23-.036c.091-.044.137-.12.137-.228 0-.091-.029-.157-.086-.198-.057-.042-.151-.062-.282-.062h-.449Zm0 .86v.617h.497c.143 0 .243-.02.3-.06.076-.055.114-.137.114-.248 0-.132-.051-.223-.154-.27a.749.749 0 0 0-.284-.04H6.49ZM8.637 6v.401H8.19V6h.446Zm0 .572V8.25H8.19V6.572h.446ZM9.417 6.574v.235a.632.632 0 0 1 .546-.288c.137 0 .254.035.349.105a.439.439 0 0 1 .16.21c.03.085.045.204.045.358v1.055h-.445v-.962a.74.74 0 0 0-.028-.236.21.21 0 0 0-.089-.105.356.356 0 0 0-.35.008.304.304 0 0 0-.122.133.74.74 0 0 0-.045.297v.865h-.446V6.574h.425ZM12.38 8.249h-.456a.605.605 0 0 1-.03-.168.722.722 0 0 1-.54.214c-.171 0-.306-.04-.402-.12a.475.475 0 0 1-.166-.386c0-.21.095-.356.284-.437.077-.033.219-.063.425-.09a1.37 1.37 0 0 0 .331-.07c.044-.021.066-.066.066-.132 0-.147-.098-.22-.293-.22-.103 0-.179.018-.227.055-.047.037-.079.101-.094.192h-.422a.545.545 0 0 1 .211-.422c.127-.095.308-.142.543-.142.26 0 .451.053.575.158.058.05.096.102.115.159a.914.914 0 0 1 .028.267l-.004.339-.003.347c0 .122.003.212.01.269.008.057.024.119.048.187Zm-.492-.81a.865.865 0 0 1-.313.084.758.758 0 0 0-.231.063c-.067.036-.1.097-.1.183 0 .07.022.124.066.163a.27.27 0 0 0 .185.058.403.403 0 0 0 .318-.138.27.27 0 0 0 .06-.1.467.467 0 0 0 .015-.136v-.178ZM13.716 6.541v.433a.997.997 0 0 0-.174-.02.39.39 0 0 0-.366.209c-.044.078-.066.208-.066.39v.696h-.446v-1.68h.424v.306c.121-.227.297-.341.528-.341.028 0 .062.002.1.007ZM14.372 6v.401h-.446V6h.446Zm0 .572V8.25h-.446V6.572h.446ZM15.534 6.523a.79.79 0 0 1 .598.243c.153.16.23.373.23.64 0 .276-.082.495-.245.66a.807.807 0 0 1-.597.229c-.261 0-.47-.085-.624-.256-.148-.162-.222-.372-.222-.63 0-.254.072-.461.215-.62.16-.177.374-.266.645-.266Zm-.023.348a.331.331 0 0 0-.282.143.656.656 0 0 0-.106.395c0 .173.035.306.105.398a.35.35 0 0 0 .293.14.333.333 0 0 0 .276-.127c.077-.095.115-.232.115-.411 0-.168-.034-.299-.101-.392a.349.349 0 0 0-.3-.146Z" fill="#fff"/></g><defs><clipPath id="a"><path fill="#fff" d="M0 0h30v30H0z"/></clipPath></defs></svg>
